!!!COM: Corelli, Arcangelo
!!!OPR: Sonata da camera
!!!OPS: 4
!!!ONM: 1
!!!OMV: 2
!!!OTL: Corrente
!!!OMD: Allegro
**kern	**fb	**kern	**kern
*part3	*part3	*part2	*part1
*staff3	*	*staff2	*staff1
*I"Violone & Organo	*	*I"Violino II	*I"Violino I
*clefF4	*	*clefG2	*clefG2
*k[]	*	*k[]	*k[]
*M3/4	*	*M3/4	*M3/4
=1	=1	=1	=1
!	!	!	!LO:TX:a:t=Corrente Allegro
8C	.	8ee	8cc
=	=	=	=
2C	.	4ee	4cc
.	.	4gg	4ee
4r	.	4ee	4gg
=	=	=	=
4c	.	2cc	2ccc
4E	6	.	.
4G	.	4r	4r
=	=	=	=
2C	.	4ee	8ccL
.	.	.	8eeJ
.	.	4cc	8ggL
.	.	.	8eeJ
4c	.	4ee	8ccL
.	.	.	8eeJ
=	=	=	=
2B	6	4gg	8ddL
.	.	.	8ggJ
.	.	4g	8ddL
.	.	.	8bJ
4B	.	4dd	8gL
.	.	.	8bJ
=	=	=	=
4A	7	4ee	8ccL
.	.	.	8eeJ
4d	#r7	2ff#X	8ccL
.	.	.	8aJ
4D	.	.	8f#XL
.	.	.	8ddJ
=	=	=	=
8GL	.	2gg	2b
8F#XJ	.	.	.
8GL	.	.	.
8AJ	.	.	.
8GL	.	4r	4r
8FnJ	.	.	.
=	=	=	=
2E	6	4ccc	8ggL
.	.	.	8eeJ
.	.	4gg	8ccL
.	.	.	8eeJ
4E	.	4ee	8ggL
.	.	.	8eeJ
=	=	=	=
2F	5	4cc	8aaL
.	.	.	8aJ
.	6 4	4dd	8bL
.	.	.	8ggJ
4E	6	4ee	8ccL
.	.	.	8ggJ
=	=	=	=
4F	.	(8ddL	8ffL
.	.	8ccJ)	8eeJ
4G	5 4	4.cc	2dd
4GG	3	.	.
.	.	8b	.
=	=	=	=
8cL	.	2cc	2cc
8BJ	.	.	.
8cL	.	.	.
8dJ	.	.	.
8cL	.	4r	4r
8dJ	.	.	.
=	=	=	=
2B	6	4dd	8ggL
.	.	.	8bbJ
.	.	4b	8ggL
.	.	.	8ddJ
4r	.	4g	8bL
.	.	.	8gJ
=	=	=	=
8AL	.	2a	2cc
8cJ	.	.	.
8AL	.	.	.
8GJ	.	.	.
8F#XL	6 5	4r	4r
8DJ	.	.	.
=	=	=	=
2G	.	4dd	8bL
.	.	.	8gJ
.	.	4gg	8bL
.	.	.	8ddJ
4BB	6	4dd	8ggL
.	.	.	8ddJ
=	=	=	=
2C	5	4g	8eeL
.	.	.	8ccJ
.	.	4cc	8eeL
.	.	.	8ggJ
4C	6	4ee	8cccL
.	.	.	8eeJ
=	=	=	=
2D	#	2a	8ff#XL
.	.	.	8ddJ
.	.	.	8ff#L
.	.	.	8ddJ
4BB	6	4dd	8ggL
.	.	.	8ddJ
=	=	=	=
4C	.	4g	8ccL
.	.	.	8bJ
4D	5 4	4.g	2a
4DD	#	.	.
.	.	8f#X	.
=	=	=	=
2GG	.	2g	2g
8r	.	8r	8r
=:|!|:	=:|!|:	=:|!|:	=:|!|:
8G	.	8b	8dd
=	=	=	=
4G	.	2b	2dd
4BB	6	.	.
4D	#	4r	4r
=	=	=	=
2GG	.	8ddL	8bL
.	.	8ccJ	8ccJ
.	.	8bL	8ddL
.	.	8gJ	8bJ
4r	.	8aL	8ccL
.	.	8bJ	8ddJ
=	=	=	=
8EL	6	2cc	2g
8FJ	.	.	.
8GL	.	.	.
8EJ	.	.	.
8FL	.	4r	4r
8GJ	.	.	.
=	=	=	=
2C	.	8ggL	8eeL
.	.	8ffJ	8ffJ
.	.	8eeL	8ggL
.	.	8ccJ	8eeJ
4r	.	8ddL	8ffL
.	.	8eeJ	8ggJ
=	=	=	=
8AL	6	2ff	2cc
8B-XJ	.	.	.
8cL	.	.	.
8AJ	.	.	.
8B-L	.	4r	4r
8cJ	.	.	.
=	=	=	=
2F	.	2cc	8ffL
.	.	.	8ggJ
.	.	.	8aaL
.	.	.	8ffJ
4r	.	4cc	8ggL
.	.	.	8aaJ
=	=	=	=
8F#XL	6	2a	2dd
8EJ	.	.	.
8F#L	.	.	.
8DJ	.	.	.
8EL	.	4r	4r
8F#XiJ	.	.	.
=	=	=	=
2G	.	2dd	8bL
.	.	.	8ccJ
.	.	.	8ddL
.	.	.	8bJ
4r	.	4dd	8ccL
.	.	.	8ddJ
=	=	=	=
8G#XL	6	2b	2ee
8F#XJ	.	.	.
8G#XiL	.	.	.
8EJ	.	.	.
8F#XiL	.	4r	4r
8G#XiJ	.	.	.
=	=	=	=
2A	.	2e	8ccL
.	.	.	8eeJ
.	.	.	8aaL
.	.	.	8ggJ
4C	6	4ee	8ffL
.	.	.	8eeJ
=	=	=	=
2D	5	2a	8ffL
.	.	.	8aJ
.	.	.	8ddL
.	.	.	8ccJ
4D	6	4ff	8bL
.	.	.	8aJ
=	=	=	=
4.E	#	4.b	4.g#X
8C	6	8e	8ee
4D	.	[4a	(8ffL
.	.	.	8eeJ)
=	=	=	=
4AA	.	4a]	(8ddL
.	.	.	8ccJ)
2E	5 #r4	4.a	2b
.	.	8g#X	.
=	=	=	=
8AL	.	2a	2a
8G#XJ	.	.	.
8AL	.	.	.
8BJ	.	.	.
8AL	.	4r	4r
8GnJ	.	.	.
=	=	=	=
2F#X	6	2aa	8ddL
.	.	.	8aJ
.	.	.	8bL
.	.	.	8ccJ
4r	.	4aa	8ddL
.	.	.	8ccJ
=	=	=	=
8GL	.	2dd	2b
8F#XJ	.	.	.
8GL	.	.	.
8AJ	.	.	.
8GL	.	4r	4r
8FnJ	.	.	.
=	=	=	=
2E	6	8ccL	8ggL
.	.	8ddJ	8ffJ
.	.	8eeL	8ggL
.	.	8ccJ	8eeJ
4E	.	8ddL	8ffL
.	.	8eeJ	8ggJ
=	=	=	=
2F	.	8aL	8aaL
.	.	8bJ	8ggJ
.	.	8ccL	8aaL
.	.	8ddJ	8bbJ
4E	6	4ee	8cccL
.	.	.	8ggJ
=	=	=	=
4F	6 5	4cc	(8ffL
.	.	.	8eeJ)
4G	5 4	4.cc	2dd
4GG	3	.	.
.	.	8b	.
=	=	=	=
8cL	.	[2.cc	[2.cc
8BJ	.	.	.
8cL	.	.	.
8dJ	.	.	.
8cL	.	.	.
8BJ	.	.	.
=	=	=	=
8AL	5	2.cc_	2.cc_
8GJ	.	.	.
8AL	.	.	.
8BJ	.	.	.
8AL	.	.	.
8GJ	.	.	.
=	=	=	=
8FL	.	2.cc]	2.cc]
8EJ	.	.	.
8FL	.	.	.
8GJ	.	.	.
8FL	.	.	.
8EJ	.	.	.
=	=	=	=
2D	6	2b	2ff
4C	.	[4cc	[4ee
=	=	=	=
4F	7 5	4cc]	4ee]
4G	5 4	4.cc	2dd
4GG	3	.	.
.	.	8b	.
=	=	=	=
!	!	!LO:TX:a:t=Piano	!
8cL	.	[2.cc	[2.cc
8BJ	.	.	.
8cL	.	.	.
8dJ	.	.	.
8cL	.	.	.
8BJ	.	.	.
=	=	=	=
8AL	5	2.cc_	2.cc_
8GJ	.	.	.
8AL	.	.	.
8BJ	.	.	.
8AL	.	.	.
8GJ	.	.	.
=	=	=	=
8FL	5	2.cc]	2.cc]
8EJ	.	.	.
8FL	.	.	.
8GJ	.	.	.
8FL	.	.	.
8EJ	.	.	.
=	=	=	=
2D	6	2b	2ff
4C	.	[4cc	[4ee
=	=	=	=
4F	7 5	4cc]	4ee]
4G	5 4	4.cc	2dd
4GG	3	.	.
.	.	8b	.
=	=	=	=
2C	.	2cc	2cc
4r	.	4r	4r
=:|!	=:|!	=:|!	=:|!
*-	*-	*-	*-
!!!system-decoration: [{s1,s2},s3,s4]
!!!YEM: CC BY-NC-SA 4.0; CCARH; DCML
!!!RDF**kern: i = editorial accidental